css/img/circle.svg

<!DOCTYPE svg PUBLIC "-//W3C//DTD SVG 1.1//EN" "http://www.w3.org/Graphics/SVG/1.1/DTD/svg11.dtd">
<!-- Uploaded to: SVG Repo, www.svgrepo.com, Transformed by: SVG Repo Mixer Tools -->
<svg fill="#000000" width="251px" height="251px" viewBox="0 0 32 32" version="1.1" xmlns="http://www.w3.org/2000/svg" stroke="#000000" stroke-width="0.704">
<g id="SVGRepo_bgCarrier" stroke-width="0"/>
<g id="SVGRepo_tracerCarrier" stroke-linecap="round" stroke-linejoin="round"/>
<g id="SVGRepo_iconCarrier"> <title>circle</title> <path d="M28.857 18c-0.8 5.65-5.227 10.125-10.857 10.997v1.003h-4v-1.003c-5.63-0.871-10.057-5.347-10.858-10.997h-1.142v-4h1.188c0.924-5.493 5.293-9.81 10.812-10.664v-1.336h4v1.336c5.52 0.854 9.887 5.171 10.812 10.664h1.188v4h-1.143zM15 29h2v-2h-2v2zM3 15v2h2v-2h-2zM17 3h-2v2h2v-2zM18 4.852v1.148h-4v-1.148c-4.69 0.824-8.401 4.483-9.292 9.148h1.292v4h-1.346c0.775 4.822 4.545 8.638 9.346 9.481v-1.481h4v1.481c4.801-0.844 8.571-4.659 9.346-9.481h-1.346v-4h1.292c-0.892-4.665-4.602-8.324-9.292-9.148zM29 15h-2v2h2v-2z"/> </g>
</svg>

<?xml version="1.0" encoding="UTF-8" standalone="no"?>
<svg
   clip-rule="evenodd"
   fill-rule="evenodd"
   stroke-linejoin="round"
   stroke-miterlimit="2"
   viewBox="0 0 64 64"
   version="1.1"
   id="svg10"
   sodipodi:docname="circle.svg"
   inkscape:version="1.1.2 (0a00cf5339, 2022-02-04)"
   xmlns:inkscape="http://www.inkscape.org/namespaces/inkscape"
   xmlns:sodipodi="http://sodipodi.sourceforge.net/DTD/sodipodi-0.dtd"
   xmlns="http://www.w3.org/2000/svg"
   xmlns:svg="http://www.w3.org/2000/svg"
   xmlns:rdf="http://www.w3.org/1999/02/22-rdf-syntax-ns#"
   xmlns:cc="http://creativecommons.org/ns#"
   xmlns:dc="http://purl.org/dc/elements/1.1/">
  <metadata
     id="metadata16">
    <rdf:RDF>
      <cc:Work
         rdf:about="">
        <dc:format>image/svg+xml</dc:format>
        <dc:type
           rdf:resource="http://purl.org/dc/dcmitype/StillImage" />
      </cc:Work>
    </rdf:RDF>
  </metadata>
  <defs
     id="defs14" />
  <sodipodi:namedview
     pagecolor="#ffffff"
     bordercolor="#666666"
     borderopacity="1"
     objecttolerance="10"
     gridtolerance="10"
     guidetolerance="10"
     inkscape:pageopacity="0"
     inkscape:pageshadow="2"
     inkscape:window-width="1920"
     inkscape:window-height="1012"
     id="namedview12"
     showgrid="false"
     inkscape:zoom="1.7401456"
     inkscape:cx="-99.129636"
     inkscape:cy="19.538595"
     inkscape:window-x="0"
     inkscape:window-y="0"
     inkscape:window-maximized="1"
     inkscape:current-layer="svg10"
     inkscape:pagecheckerboard="0" />
  <g
     id="SVGRepo_iconCarrier-8"
     transform="matrix(1.8709838,0,0,1.8709838,2.8005141,2.1985263)">
    <title
       id="title4">circle</title>
    <path
       d="M 28.857,18 C 28.057,23.65 23.63,28.125 18,28.997 V 30 H 14 V 28.997 C 8.37,28.126 3.943,23.65 3.142,18 H 2 V 14 H 3.188 C 4.112,8.507 8.481,4.19 14,3.336 V 2 h 4 V 3.336 C 23.52,4.19 27.887,8.507 28.812,14 H 30 v 4 z M 15,29 h 2 V 27 H 15 Z M 3,15 v 2 H 5 V 15 Z M 17,3 h -2 v 2 h 2 z m 1,1.852 V 6 H 14 V 4.852 C 9.31,5.676 5.599,9.335 4.708,14 H 6 v 4 H 4.654 C 5.429,22.822 9.199,26.638 14,27.481 V 26 h 4 v 1.481 C 22.801,26.637 26.571,22.822 27.346,18 H 26 v -4 h 1.292 C 26.4,9.335 22.69,5.676 18,4.852 Z M 29,15 h -2 v 2 h 2 z"
       id="path6" />
  </g>
  <path
     d="m0 0h64v64h-64z"
     fill="none"
     id="path2" />
  <text
     xml:space="preserve"
     style="font-style:normal;font-weight:normal;font-size:40px;line-height:1.25;font-family:sans-serif;letter-spacing:0px;word-spacing:0px;fill:#000000;fill-opacity:1;stroke:none"
     x="17.627119"
     y="10.847458"
     id="text827"><tspan
       sodipodi:role="line"
       id="tspan825"
       x="17.627119"
       y="46.238083" /></text>
</svg>
